X: 40794
T: Town Of Uranquinty, The
R: hornpipe
M: 4/4
K: Cmajor
GF|"C"EDCE "G"DCB,D|"C"CDEG cGEG|"F"AGAc "C"GE (3GAB|"D7"cAGE "G"D2GF|
"C"EDCE "G"DCB,D|"C"CDEG cGEG|"F"AGAc "C"GFEC|"G"DCB,D "C"C2:|
|:cd|"C"eded cdcG|"F"AGFA "C"G2 cd|edeg edc^c|"D7"d^cde "G"d2 =cd|
"C"eded cdcG|"F"AGFA "C"G2(3GAB|"F"cGAc "C"GECE|"G"DCB,D "C"C2:|

